Obsidian-SemiLight/actions/16s/media-random-tracks-amarok.svg

<svg viewBox="0 0 16 16" xmlns="http://www.w3.org/2000/svg"><path d="m3 2a1 1 0 0 0 -1 1 1 1 0 0 0 1 1 1 1 0 0 0 1-1 1 1 0 0 0 -1-1zm2 0v1h2 6v-1h-6zm0 2v1h2 4v-1h-4zm7 3v1h-2c-1.10799 0-2 .89201-2 2v1c0 .554-.446 1-1 1h-2v1h1 1c1.10799 0 2-.89201 2-2v-1c0-.554.446-1 1-1h1 1v1l2-1.5zm-9 1a1 1 0 0 0 -1 1 1 1 0 0 0 1 1 1 1 0 0 0 1-1 1 1 0 0 0 -1-1zm2 0v1h2v-1zm7 3v1h-2v1h2v1l2-1.5z" fill="#4d4d4d"/></svg>

<svg xmlns="http://www.w3.org/2000/svg" viewBox="0 0 16 16">
  <defs id="defs3051">
    <style type="text/css" id="current-color-scheme">
      .ColorScheme-Text {
        color:#4d4d4d;
      }
      </style>
  </defs>
 <path style="fill:currentColor;fill-opacity:1;stroke:none" 
     d="M 3 2 A 1 1 0 0 0 2 3 A 1 1 0 0 0 3 4 A 1 1 0 0 0 4 3 A 1 1 0 0 0 3 2 z M 5 2 L 5 3 L 7 3 L 13 3 L 13 2 L 7 2 L 5 2 z M 5 4 L 5 5 L 7 5 L 11 5 L 11 4 L 7 4 L 5 4 z M 12 7 L 12 8 L 10 8 C 8.89201 8 8 8.89201 8 10 L 8 11 C 8 11.554 7.554 12 7 12 L 5 12 L 5 13 L 6 13 L 7 13 C 8.10799 13 9 12.10799 9 11 L 9 10 C 9 9.446 9.446 9 10 9 L 11 9 L 12 9 L 12 10 L 14 8.5 L 12 7 z M 3 8 A 1 1 0 0 0 2 9 A 1 1 0 0 0 3 10 A 1 1 0 0 0 4 9 A 1 1 0 0 0 3 8 z M 5 8 L 5 9 L 7 9 L 7 8 L 5 8 z M 12 11 L 12 12 L 10 12 L 10 13 L 12 13 L 12 14 L 14 12.5 L 12 11 z "
     class="ColorScheme-Text"
     />
</svg>
